extras/source/gallery/symbols/Sign-DoNotEnter.svg

<svg enable-background="new 0 0 106 106" height="106" viewBox="0 0 106 106" width="106" xmlns="http://www.w3.org/2000/svg" xmlns:xlink="http://www.w3.org/1999/xlink"><linearGradient id="a"><stop offset="0" stop-color="#ff5f06"/><stop offset=".1061" stop-color="#f95507"/><stop offset="1" stop-color="#cb0212"/></linearGradient><linearGradient id="b" gradientUnits="userSpaceOnUse" x1="31.8267" x2="79.0856" xlink:href="#a" y1="23.1162" y2="91.5879"/><linearGradient id="c" gradientUnits="userSpaceOnUse" x1="51.1743" x2="32.7241" xlink:href="#a" y1="53.8936" y2="63.7221"/><mask id="d" height="73.942" maskUnits="userSpaceOnUse" width="73.941" x="16.724" y="16.329"><path d="m10.824 58.715s35.952 14.484 80.052-33.754c-15.779-10.346-36.083-11.251-36.083-11.251l-18.955 2.54-17.418 16.369z" fill="url(#e)"/></mask><linearGradient id="e" gradientUnits="userSpaceOnUse" x1="34.9844" x2="54.6419" y1="18.8745" y2="47.3262"><stop offset="0" stop-color="#fff"/><stop offset="1"/></linearGradient><path d="m15.19 53.3c0 20.661 16.809 37.471 37.47 37.471s37.47-16.81 37.47-37.471c0-20.662-16.809-37.471-37.47-37.471s-37.47 16.809-37.47 37.471z" fill="#82abe0"/><path d="m52.659 15.33c-5.126 0-10.099 1.004-14.78 2.984-4.522 1.912-8.583 4.65-12.069 8.136-3.487 3.487-6.225 7.548-8.137 12.069-1.98 4.682-2.984 9.655-2.984 14.781 0 5.127 1.004 10.099 2.984 14.78 1.913 4.522 4.65 8.582 8.137 12.069 3.486 3.486 7.547 6.225 12.069 8.138 4.681 1.979 9.654 2.984 14.78 2.984 5.125 0 10.099-1.005 14.78-2.984 4.522-1.913 8.582-4.651 12.069-8.138 3.486-3.487 6.224-7.547 8.137-12.069 1.979-4.682 2.984-9.655 2.984-14.78 0-5.126-1.005-10.099-2.984-14.781-1.913-4.521-4.65-8.582-8.137-12.069-3.487-3.486-7.547-6.224-12.069-8.136-4.682-1.98-9.654-2.984-14.78-2.984zm-36.97 37.97c0-20.42 16.551-36.97 36.97-36.97 20.418 0 36.971 16.55 36.971 36.97 0 20.418-16.553 36.972-36.971 36.972-20.419-.001-36.97-16.554-36.97-36.972z" fill="#bd0000"/><path d="m16.19 53.3c0 20.11 16.36 36.471 36.47 36.471s36.47-16.36 36.47-36.471c0-20.11-16.36-36.471-36.47-36.471s-36.47 16.361-36.47 36.471z" fill="url(#b)"/><path d="m52.659 16.33c-20.418 0-36.97 16.55-36.97 36.97 0 20.418 16.551 36.972 36.97 36.972 20.418 0 36.971-16.554 36.971-36.972-.001-20.42-16.553-36.97-36.971-36.97zm0 72.941c-9.608 0-18.641-3.742-25.435-10.536s-10.535-15.827-10.535-25.435c0-9.609 3.741-18.642 10.535-25.435 6.793-6.794 15.826-10.535 25.435-10.535s18.641 3.741 25.435 10.535c6.793 6.793 10.535 15.826 10.535 25.435 0 9.608-3.742 18.642-10.535 25.436-6.794 6.793-15.827 10.535-25.435 10.535z" fill="#ffcdcc"/><path d="m27.315 46.571h49.315v13.794h-49.315z" fill="url(#c)"/><path d="m27.833 46.055h49.315v13.794h-49.315z" fill="#fff"/><g mask="url(#d)" opacity=".5"><path d="m17.186 51.935c-.365 9.753 3.09 19.063 9.728 26.217 6.638 7.152 15.665 11.292 25.417 11.656 9.751.365 19.061-3.09 26.214-9.728s11.293-15.664 11.657-25.415c.754-20.132-15.012-37.123-35.142-37.875-20.132-.751-37.122 15.015-37.874 35.145z" fill="#fff"/><g><path d="m53.671 16.329c-19.781.002-36.177 15.657-36.921 35.59-.018.479-.026.955-.026 1.43.012 19.771 15.663 36.151 35.59 36.896.47.018.938.027 1.406.027 19.778 0 36.173-15.657 36.918-35.591.018-.479.026-.954.026-1.429-.013-19.771-15.664-36.152-35.588-36.897-.471-.017-.938-.026-1.405-.026zm.049 73.07c-.454 0-.916-.009-1.373-.026-9.637-.36-18.556-4.45-25.115-11.518-6.558-7.068-9.971-16.268-9.611-25.903.351-9.397 4.277-18.159 11.055-24.674 6.76-6.498 15.637-10.077 24.996-10.077.443 0 .905.008 1.374.025-.001 0-.001 0-.002 0 9.635.36 18.553 4.451 25.111 11.519s9.973 16.267 9.612 25.902c-.352 9.397-4.277 18.16-11.054 24.676-6.76 6.498-15.636 10.076-24.993 10.076z" fill="#ffcdcc"/></g></g></svg>

<?xml version="1.0" encoding="utf-8"?>
<!-- Generator: Adobe Illustrator 12.0.1, SVG Export Plug-In . SVG Version: 6.00 Build 51448)  -->
<!DOCTYPE svg PUBLIC "-//W3C//DTD SVG 1.1//EN" "http://www.w3.org/Graphics/SVG/1.1/DTD/svg11.dtd" [
	<!ENTITY ns_svg "http://www.w3.org/2000/svg">
	<!ENTITY ns_xlink "http://www.w3.org/1999/xlink">
]>
<svg  version="1.1" id="Layer_1" xmlns="&ns_svg;" xmlns:xlink="&ns_xlink;" width="106" height="106" viewBox="0 0 106 106"
	 overflow="visible" enable-background="new 0 0 106 106" xml:space="preserve">
<g>
	<g>
		<g>
			<g>
				<path fill="#82ABE0" d="M15.19,53.3c0,20.661,16.809,37.471,37.47,37.471s37.47-16.81,37.47-37.471
					c0-20.662-16.809-37.471-37.47-37.471S15.19,32.638,15.19,53.3z"/>
				<g>
					<path fill="#BD0000" d="M52.659,15.33c-5.126,0-10.099,1.004-14.78,2.984c-4.522,1.912-8.583,4.65-12.069,8.136
						c-3.487,3.487-6.225,7.548-8.137,12.069c-1.98,4.682-2.984,9.655-2.984,14.781c0,5.127,1.004,10.099,2.984,14.78
						c1.913,4.522,4.65,8.582,8.137,12.069c3.486,3.486,7.547,6.225,12.069,8.138c4.681,1.979,9.654,2.984,14.78,2.984
						c5.125,0,10.099-1.005,14.78-2.984c4.522-1.913,8.582-4.651,12.069-8.138c3.486-3.487,6.224-7.547,8.137-12.069
						c1.979-4.682,2.984-9.655,2.984-14.78c0-5.126-1.005-10.099-2.984-14.781c-1.913-4.521-4.65-8.582-8.137-12.069
						c-3.487-3.486-7.547-6.224-12.069-8.136C62.757,16.334,57.785,15.33,52.659,15.33L52.659,15.33z M15.689,53.3
						c0-20.42,16.551-36.97,36.97-36.97c20.418,0,36.971,16.55,36.971,36.97l0,0l0,0c0,20.418-16.553,36.972-36.971,36.972
						C32.24,90.271,15.689,73.718,15.689,53.3L15.689,53.3L15.689,53.3z"/>
				</g>
			</g>
		</g>
		<g>
			<linearGradient id="XMLID_7_" gradientUnits="userSpaceOnUse" x1="31.8267" y1="23.1162" x2="79.0856" y2="91.5879">
				<stop  offset="0" style="stop-color:#FF5F06"/>
				<stop  offset="0.1061" style="stop-color:#F95507"/>
				<stop  offset="1" style="stop-color:#CB0212"/>
			</linearGradient>
			<path fill="url(#XMLID_7_)" d="M16.19,53.3c0,20.11,16.36,36.471,36.47,36.471s36.47-16.36,36.47-36.471
				c0-20.11-16.36-36.471-36.47-36.471S16.19,33.19,16.19,53.3z"/>
			<g>
				<path fill="#FFCDCC" d="M52.659,16.33c-20.418,0-36.97,16.55-36.97,36.97c0,20.418,16.551,36.972,36.97,36.972
					c20.418,0,36.971-16.554,36.971-36.972C89.629,32.88,73.077,16.33,52.659,16.33L52.659,16.33z M52.659,89.271
					c-9.608,0-18.641-3.742-25.435-10.536S16.689,62.908,16.689,53.3c0-9.609,3.741-18.642,10.535-25.435
					C34.017,21.071,43.05,17.33,52.659,17.33S71.3,21.071,78.094,27.865c6.793,6.793,10.535,15.826,10.535,25.435
					c0,9.608-3.742,18.642-10.535,25.436C71.3,85.529,62.267,89.271,52.659,89.271L52.659,89.271z"/>
			</g>
		</g>
	</g>
	<linearGradient id="XMLID_10_" gradientUnits="userSpaceOnUse" x1="51.1743" y1="53.8936" x2="32.7241" y2="63.7221">
		<stop  offset="0" style="stop-color:#FF5F06"/>
		<stop  offset="0.1061" style="stop-color:#F95507"/>
		<stop  offset="1" style="stop-color:#CB0212"/>
	</linearGradient>
	<rect x="27.315" y="46.571" fill="url(#XMLID_10_)" width="49.315" height="13.794"/>
	<rect x="27.833" y="46.055" fill="#FFFFFF" width="49.315" height="13.794"/>
	<defs>
		<filter id="Adobe_OpacityMaskFilter" filterUnits="userSpaceOnUse" x="16.724" y="16.329" width="73.941" height="73.942">
			<feColorMatrix  type="matrix" values="1 0 0 0 0  0 1 0 0 0  0 0 1 0 0  0 0 0 1 0"/>
		</filter>
	</defs>
	<mask maskUnits="userSpaceOnUse" x="16.724" y="16.329" width="73.941" height="73.942" id="XMLID_11_">
		<g filter="url(#Adobe_OpacityMaskFilter)">
			<linearGradient id="XMLID_12_" gradientUnits="userSpaceOnUse" x1="34.9844" y1="18.8745" x2="54.6419" y2="47.3262">
				<stop  offset="0" style="stop-color:#FFFFFF"/>
				<stop  offset="1" style="stop-color:#000000"/>
			</linearGradient>
			<path fill="url(#XMLID_12_)" d="M10.824,58.715c0,0,35.952,14.484,80.052-33.754C75.097,14.615,54.793,13.71,54.793,13.71
				l-18.955,2.54L18.42,32.619L10.824,58.715z"/>
		</g>
	</mask>
	<g opacity="0.5" mask="url(#XMLID_11_)">
		<path fill="#FFFFFF" d="M17.186,51.935L17.186,51.935c-0.365,9.753,3.09,19.063,9.728,26.217
			c6.638,7.152,15.665,11.292,25.417,11.656c9.751,0.365,19.061-3.09,26.214-9.728s11.293-15.664,11.657-25.415
			C90.956,34.533,75.19,17.542,55.06,16.79C34.928,16.039,17.938,31.805,17.186,51.935z"/>
		<g>
			<path fill="#FFCDCC" d="M53.671,16.329C33.89,16.331,17.494,31.986,16.75,51.919c-0.018,0.479-0.026,0.955-0.026,1.43
				c0.012,19.771,15.663,36.151,35.59,36.896c0.47,0.018,0.938,0.027,1.406,0.027c19.778,0,36.173-15.657,36.918-35.591
				c0.018-0.479,0.026-0.954,0.026-1.429C90.651,33.481,75,17.1,55.076,16.355C54.605,16.338,54.138,16.329,53.671,16.329
				L53.671,16.329z M53.72,89.399c-0.454,0-0.916-0.009-1.373-0.026c-9.637-0.36-18.556-4.45-25.115-11.518
				c-6.558-7.068-9.971-16.268-9.611-25.903c0.351-9.397,4.277-18.159,11.055-24.674c6.76-6.498,15.637-10.077,24.996-10.077
				c0.443,0,0.905,0.008,1.374,0.025c-0.001,0-0.001,0-0.002,0c9.635,0.36,18.553,4.451,25.111,11.519s9.973,16.267,9.612,25.902
				c-0.352,9.397-4.277,18.16-11.054,24.676C71.953,85.821,63.077,89.399,53.72,89.399L53.72,89.399z"/>
		</g>
	</g>
</g>
</svg>
